!!!OTL: Jan Borluut. (1302.)
!!!ARE: Europa, Mitteleuropa, Deutschland
!!!TXL: @@DUM
!!!SCT: A0364A
!!!YEM: Copyright 1995, estate of Helmut Schaffrath.
**kern	**text
*M6/4	*
*k[b-]	*
*g:	*
{4a	Komt
=1	=1
2g	al,
4a	ik
2b-/	wil
4f	u
=2	=2
(2b-	ʒin-
4cc)	.
2dd}	-gen
{4dd	van
=3	=3
2ff	Vlaendrens
4dd	.
2ff	goe-
4gg	-den
=4	=4
(<2dd	hel-
4a)	.
2dd}	-de,
{4ee-	die
=5	=5
2gg	laest
4ee-	mog
2b-	o-
4g	-ver-
=6	=6
(2b-	-won-
4cc)	.
2dd}	-den
{4g	den
=7	=7
2b-	Wael
4cc	op't
2dd	Groe-
4g	-nings-
=8	=8
(2cc	-vel-
4b-)	.
2a/;}	de.
==	==
!!!GTL: Einige historisch-politische Lieder
!!!AGN: Romanze, Ballade, Lied, Personenlied
!! Melodie muendlich durch die Familie Westendorp in Elberfeld,
!!    zuerst mitgetheilt in der Zs. des Bergischen Geschichtsvereins II
!!    (1865) durch Dr. Crecelius.
!!!ONB: ESAC (Essen Associative Code) Database: ALTDEU
!!!AMT: compound duple
!!!AIN: vox
!!!EED: Helmut Schaffrath
!!!EEV: 1.0
!!!RDF**kern: < = below
!!!URL-scan: https://rosdok.uni-rostock.de/mcrviewer/recordIdentifier/rosdok_ppn738218359/iview2/phys_0510.iview2?x=-949.4259179952323&y=2195.156648192089&scale=0.3669911794666851&rotation=0&layout=singlePageLayout&logicalDiv=log_0014
!!!ENC: Anna Maria Matuszewska
!!!EEV: 2024/14/03
*-	*-
